X:1
T:I Am on My Way to Heaven
T:I Am on My Way to Heaven
T:Herbert J. Lacey
T:Herbert J. Lacey, 1904
T:Public Domain Courtesy of the Cyber Hymnal™
T:Public Domain Courtesy of the Cyber Hymnal™
C:Herbert J. Lacey
Z:Public Domain
Z:Courtesy of the Cyber Hymnal™
%%score ( 1 2 ) 3
L:1/8
Q:1/4=90
M:4/4
K:Eb
V:1 treble 
V:2 treble 
V:3 bass 
V:1
 E>[EG] | [GB]>[GB] [GB]>[Ac] [GB]>[EG] E>[EG] | [GB]>[GB] [GB]>[Ac] [GB]2 A>G | F2 B4 G>F | %4
w: 1.~I am|on my way to Heav- en where the|saints are robed in white Shout- ing|glo- ry, shout- ing|
w: 2.~I am|on my way to Heav- en Where the|streets are paved with gold, Shout- ing|glo- ry, shout- ing|
w: 3.~I am|on my way to Heav- en, Bless- èd|land of pure de- light, Shout- ing|glo- ry, shout- ing|
w: 4.~I am|on my way to Heav- en Where I’ll|see my Sav- ior’s face Shout- ing|glo- ry, shout- ing|
 E2 B4 E>[EG] | [GB]>[GB] [GB]>[Ac] [GB]>[EG] E>[EG] | [GB]>[GB] [GB]>[Ac] [GB]2 A>G | F2 B4 G>F | %8
w: glo- ry! To that|bless- èd land im- mor- tal Where can|nev- er come the night, Shout- ing|glo- ry all the|
w: glo- ry! To the|place of ma- ny man- sions and of|glor- ies yet un- told, Shout- ing|glo- ry all the|
w: glo- ry! Where the|blest of ev- ery na- tion Are for-|ev- er clothed in white, Shout- ing|glo- ry all the|
w: glo- ry! There I’ll|sing re- demp- tion’s sto- ry, Bless- èd|song of sav- ing grace, Shout- ing|glo- ry all the|
 z2 x8 |:"^Refrain" [GB]2 | [Ac]>[Ac] [Ac]>[Ac] [Ac][ce][Bd][Ac] | %11
w: |way!||
w: |way!||
w: |way!|O glo- ry, hal- le- lu- jah! I|
w: |way!||
 [GB]>[GB] [GB]>[Ac] [GB][EG] F>E |1 D2 B4 G>F | E2 B4 :|2 G>F || z2 x8 |] %16
w: |||||
w: |||||
w: am on the way to Heav- en, Shout-|ing glo- ry, shout-|ing glo-|ry all||
w: |||||
V:2
 E3/2 x/ | x6 E3/2 x/ | x8 | x2 (F>FFF) x2 | x2 (G>GGG) x2 | x6 E3/2 x/ | x8 | x2 (F>FFF) x2 | %8
 E6 C>C B,2 |: x2 | x8 | x8 |1 x2 (F>FFF) x2 | x2 (G>GGG) :|2 x2 || E6 C>C B,2 |] %16
V:3
 [E,G,]>[E,B,] | [E,E]>[E,E] [E,E]>[E,E] [E,E]>[E,B,] [E,G,]>[E,B,] | %2
w: ~ ~|~ ~ ~ ~ ~ ~ ~ ~|
 [E,E]>[E,E] [E,E]>[E,E] [E,E]2 z2 | z2 [B,D]>[B,D] [B,D][B,D] z2 | %4
w: ~ ~ ~ ~ ~|Hal- le- lu- jah!|
 z2 [E,E]>[E,E] [E,E][E,E] [E,G,]>[E,B,] | [E,E]>[E,E] [E,E]>[E,E] [E,E]>[E,B,] [E,G,]>[E,B,] | %6
w: Hal- le- lu- jah! ~ ~|~ ~ ~ ~ ~ ~ ~ ~|
 [E,E]>[E,E] [E,E]>[E,E] [E,E]2 z2 | z2 [B,D]>[B,D] [B,D][B,D] z2 | z2 [E,A,]>[E,A,] [E,G,]2 x4 |: %9
w: ~ ~ ~ ~ ~|Hal- le- lu- jah!|all the way!|
 [E,E]2 | [A,E]>[A,E] [A,E]>[A,E] [A,E][A,C][A,D][A,E] | [E,E]>[E,E] [E,E]>[E,E] [E,E][E,B,] z2 |1 %12
w: ~|~ ~ ~ ~ ~ ~ ~ ~|~ ~ ~ ~ ~ ~|
 z2 [B,D]>[B,D] [B,D][B,D] z2 | z2 [E,E]>[E,E] [E,E][E,E] :|2 z2 || z2 [E,A,]>[E,A,] [E,G,]2 x4 |] %16
w: Hal- le- lu- jah!|Hal- le- lu- jah!||all the way!|

